X: 726
P: Longways for as many as will
M: 6/4
L: 1/4
K: F
|:\
c2c f>ed | c2B A3  | cAF  dBG | fcd A>GF |\
cAc f>ed | c2B A2c | dAc =BdG | gdf e>dc :|
gec g2c  | afd a2d | ge^c Aad | gef  e2d |\

